images/icons/tasks.svg

<svg width="48" height="48" viewBox="0 0 48 48" fill="none" xmlns="http://www.w3.org/2000/svg">
<path d="M24 44C21.2333 44 18.6333 43.475 16.2 42.425C13.7667 41.375 11.65 39.95 9.85 38.15C8.05 36.35 6.625 34.2333 5.575 31.8C4.525 29.3667 4 26.7667 4 24C4 21.2333 4.525 18.6333 5.575 16.2C6.625 13.7667 8.05 11.65 9.85 9.85C11.65 8.05 13.7667 6.625 16.2 5.575C18.6333 4.525 21.2333 4 24 4C26.1 4 28.0917 4.3 29.975 4.9C31.8583 5.5 33.6 6.33333 35.2 7.4L32.15 10.45C30.95 9.75 29.6667 9.2 28.3 8.8C26.9333 8.4 25.5 8.2 24 8.2C19.6333 8.2 15.9083 9.74167 12.825 12.825C9.74167 15.9083 8.2 19.6333 8.2 24C8.2 28.3667 9.74167 32.0917 12.825 35.175C15.9083 38.2583 19.6333 39.8 24 39.8C28.3667 39.8 32.0917 38.2583 35.175 35.175C38.2583 32.0917 39.8 28.3667 39.8 24C39.8 23.4333 39.775 22.8917 39.725 22.375C39.675 21.8583 39.6 21.35 39.5 20.85L42.9 17.45C43.2667 18.4833 43.5417 19.5417 43.725 20.625C43.9083 21.7083 44 22.8333 44 24C44 26.7667 43.475 29.3667 42.425 31.8C41.375 34.2333 39.95 36.35 38.15 38.15C36.35 39.95 34.2333 41.375 31.8 42.425C29.3667 43.475 26.7667 44 24 44ZM21.25 33.15L12.7 24.55L15.65 21.6L21.3 27.25L41.05 7.5L44 10.4L21.25 33.15Z" fill="#CDCDCD"/>
</svg>

<svg xmlns="http://www.w3.org/2000/svg" height="48" width="48"><path d="M24 44q-4.15 0-7.8-1.575-3.65-1.575-6.35-4.275-2.7-2.7-4.275-6.35Q4 28.15 4 24t1.575-7.8Q7.15 12.55 9.85 9.85q2.7-2.7 6.35-4.275Q19.85 4 24 4q3.15 0 5.975.9 2.825.9 5.225 2.5l-3.05 3.05Q30.35 9.4 28.3 8.8q-2.05-.6-4.3-.6-6.55 0-11.175 4.625Q8.2 17.45 8.2 24q0 6.55 4.625 11.175Q17.45 39.8 24 39.8q6.55 0 11.175-4.625Q39.8 30.55 39.8 24q0-.85-.075-1.625T39.5 20.85l3.4-3.4q.55 1.55.825 3.175Q44 22.25 44 24q0 4.15-1.575 7.8-1.575 3.65-4.275 6.35-2.7 2.7-6.35 4.275Q28.15 44 24 44Zm-2.75-10.85-8.55-8.6 2.95-2.95 5.65 5.65L41.05 7.5 44 10.4Z"/></svg>
